apps/16/archive-manager.svg

<?xml version="1.0" encoding="UTF-8" standalone="no"?>
<svg
   xmlns:dc="http://purl.org/dc/elements/1.1/"
   xmlns:cc="http://creativecommons.org/ns#"
   xmlns:rdf="http://www.w3.org/1999/02/22-rdf-syntax-ns#"
   xmlns:svg="http://www.w3.org/2000/svg"
   xmlns="http://www.w3.org/2000/svg"
   xmlns:xlink="http://www.w3.org/1999/xlink"
   version="1.1"
   width="16"
   height="16"
   id="svg7357">
  <defs
     id="defs7359">
    <linearGradient
       x1="23.99999"
       y1="4.999989"
       x2="23.99999"
       y2="43"
       id="linearGradient4224"
       xlink:href="#linearGradient3924-4-8"
       gradientUnits="userSpaceOnUse"
       gradientTransform="matrix(0.2972973,0,0,0.2972973,0.86486973,0.86486734)" />
    <linearGradient
       id="linearGradient3924-4-8">
      <stop
         id="stop3926-0-4"
         style="stop-color:#ffffff;stop-opacity:1"
         offset="0" />
      <stop
         id="stop3928-6-8"
         style="stop-color:#ffffff;stop-opacity:0.23529412"
         offset="0.06316455" />
      <stop
         id="stop3930-2-1"
         style="stop-color:#ffffff;stop-opacity:0.15686275"
         offset="0.95056331" />
      <stop
         id="stop3932-9-0"
         style="stop-color:#ffffff;stop-opacity:0.39215687"
         offset="1" />
    </linearGradient>
    <linearGradient
       x1="223.21748"
       y1="38.0354"
       x2="223.21748"
       y2="47.986877"
       id="linearGradient5882-7"
       xlink:href="#linearGradient5803-0"
       gradientUnits="userSpaceOnUse"
       gradientTransform="translate(-215,-35.000003)" />
    <linearGradient
       id="linearGradient5803-0">
      <stop
         id="stop5805-3"
         style="stop-color:#fff5ef;stop-opacity:1"
         offset="0" />
      <stop
         id="stop5807-4"
         style="stop-color:#fef8dd;stop-opacity:1"
         offset="1" />
    </linearGradient>
    <linearGradient
       id="linearGradient2867-449-88-871-390-598-476-591-434-148-57-177-8-3-3-6-4-8-8-8">
      <stop
         id="stop3750-1-0-7-6-6-1-3-9"
         style="stop-color:#ffcd7d;stop-opacity:1"
         offset="0" />
      <stop
         id="stop3752-3-7-4-0-32-8-923-0"
         style="stop-color:#fc8f36;stop-opacity:1"
         offset="0.26238" />
      <stop
         id="stop3754-1-8-5-2-7-6-7-1"
         style="stop-color:#e23a0e;stop-opacity:1"
         offset="0.704952" />
      <stop
         id="stop3756-1-6-2-6-6-1-96-6"
         style="stop-color:#ac441f;stop-opacity:1"
         offset="1" />
    </linearGradient>
    <radialGradient
       cx="6.7304144"
       cy="9.9571075"
       r="12.671875"
       fx="6.2001843"
       fy="9.9571075"
       id="radialGradient7347"
       xlink:href="#linearGradient2867-449-88-871-390-598-476-591-434-148-57-177-8-3-3-6-4-8-8-8"
       gradientUnits="userSpaceOnUse"
       gradientTransform="matrix(0,3.1658508,-3.8866533,0,46.97684,-26.720326)" />
    <linearGradient
       xlink:href="#linearGradient3924-4-8"
       id="linearGradient3007"
       gradientUnits="userSpaceOnUse"
       gradientTransform="matrix(0.2972973,0,0,0.2972973,0.86486973,0.86486734)"
       x1="23.99999"
       y1="4.999989"
       x2="23.99999"
       y2="43" />
    <linearGradient
       xlink:href="#linearGradient5803-0"
       id="linearGradient3010"
       gradientUnits="userSpaceOnUse"
       gradientTransform="translate(-215.0678,-35.000003)"
       x1="223.21748"
       y1="38.0354"
       x2="223.21748"
       y2="47.986877" />
    <radialGradient
       xlink:href="#linearGradient4632-92-3-0-8-1-9"
       id="radialGradient3015"
       gradientUnits="userSpaceOnUse"
       gradientTransform="matrix(0,3.1658508,-3.8866533,0,46.97684,-26.720326)"
       cx="6.7304144"
       cy="9.9571075"
       fx="6.2001843"
       fy="9.9571075"
       r="12.671875" />
    <radialGradient
       xlink:href="#linearGradient4067-0-2"
       id="radialGradient3893"
       gradientUnits="userSpaceOnUse"
       gradientTransform="matrix(0.04387427,1.7755,-1.5782982,0.03900123,53.980706,-19.149218)"
       cx="8.9130278"
       cy="10.162174"
       fx="8.3827982"
       fy="10.162174"
       r="12.671875" />
    <linearGradient
       id="linearGradient4067-0-2">
      <stop
         id="stop4069-2-9"
         style="stop-color:#ffe452;stop-opacity:1"
         offset="0" />
      <stop
         id="stop4071-8-9"
         style="stop-color:#ffeb41;stop-opacity:0"
         offset="1" />
    </linearGradient>
    <linearGradient
       xlink:href="#linearGradient3924-0"
       id="linearGradient3112"
       gradientUnits="userSpaceOnUse"
       gradientTransform="matrix(0.62162164,0,0,0.62162164,24.413894,-5.3409289)"
       x1="23.99999"
       y1="4.999989"
       x2="23.99999"
       y2="43" />
    <linearGradient
       id="linearGradient3924-0">
      <stop
         id="stop3926-6"
         style="stop-color:#ffffff;stop-opacity:1"
         offset="0" />
      <stop
         id="stop3928-3"
         style="stop-color:#ffffff;stop-opacity:0.23529412"
         offset="0.06316455" />
      <stop
         id="stop3930-2"
         style="stop-color:#ffffff;stop-opacity:0.15686275"
         offset="0.95056331" />
      <stop
         id="stop3932-62"
         style="stop-color:#ffffff;stop-opacity:0.39215687"
         offset="1" />
    </linearGradient>
    <radialGradient
       xlink:href="#linearGradient4644-104-3-3-6-2-0"
       id="radialGradient3116"
       gradientUnits="userSpaceOnUse"
       gradientTransform="matrix(0,6.0881746,-7.4743333,0,114.2883,-57.191874)"
       cx="6.7304144"
       cy="9.9571075"
       fx="6.2001843"
       fy="9.9571075"
       r="12.671875" />
    <linearGradient
       id="linearGradient4644-104-3-3-6-2-0">
      <stop
         id="stop5237-6-5-1-7-8"
         style="stop-color:#ff7a35;stop-opacity:1"
         offset="0" />
      <stop
         id="stop5239-4-6-4-8-5"
         style="stop-color:#f0431a;stop-opacity:1"
         offset="1" />
    </linearGradient>
    <radialGradient
       cx="4.9929786"
       cy="43.5"
       r="2.5"
       fx="4.9929786"
       fy="43.5"
       id="radialGradient2976"
       xlink:href="#linearGradient3688-166-749-6"
       gradientUnits="userSpaceOnUse"
       gradientTransform="matrix(2.003784,0,0,1.4,27.98813,-17.4)" />
    <linearGradient
       id="linearGradient3688-166-749-6">
      <stop
         id="stop2883-8"
         style="stop-color:#181818;stop-opacity:1"
         offset="0" />
      <stop
         id="stop2885-3"
         style="stop-color:#181818;stop-opacity:0"
         offset="1" />
    </linearGradient>
    <radialGradient
       cx="4.9929786"
       cy="43.5"
       r="2.5"
       fx="4.9929786"
       fy="43.5"
       id="radialGradient2978"
       xlink:href="#linearGradient3688-464-309-7"
       gradientUnits="userSpaceOnUse"
       gradientTransform="matrix(2.003784,0,0,1.4,-20.01187,-104.4)" />
    <linearGradient
       id="linearGradient3688-464-309-7">
      <stop
         id="stop2889-0"
         style="stop-color:#181818;stop-opacity:1"
         offset="0" />
      <stop
         id="stop2891-66"
         style="stop-color:#181818;stop-opacity:0"
         offset="1" />
    </linearGradient>
    <linearGradient
       x1="25.058096"
       y1="47.027729"
       x2="25.058096"
       y2="39.999443"
       id="linearGradient2980"
       xlink:href="#linearGradient3702-501-757-3"
       gradientUnits="userSpaceOnUse" />
    <linearGradient
       id="linearGradient3702-501-757-3">
      <stop
         id="stop2895-3"
         style="stop-color:#181818;stop-opacity:0"
         offset="0" />
      <stop
         id="stop2897-28"
         style="stop-color:#181818;stop-opacity:1"
         offset="0.5" />
      <stop
         id="stop2899-8"
         style="stop-color:#181818;stop-opacity:0"
         offset="1" />
    </linearGradient>
    <radialGradient
       xlink:href="#linearGradient4067-0-2"
       id="radialGradient3879"
       gradientUnits="userSpaceOnUse"
       gradientTransform="matrix(0,3.1658508,-3.8866533,0,46.97684,-26.720326)"
       cx="6.7304144"
       cy="9.9571075"
       fx="6.2001843"
       fy="9.9571075"
       r="12.671875" />
    <radialGradient
       xlink:href="#linearGradient4632-92-3-0-8-1-9"
       id="radialGradient3044"
       gradientUnits="userSpaceOnUse"
       gradientTransform="matrix(1.8994991e-8,4.3639682,-4.363968,1.8994991e-8,82.947989,-187.94014)"
       cx="31.999998"
       cy="4.3419166"
       fx="31.999998"
       fy="4.3419166"
       r="27.5" />
    <linearGradient
       id="linearGradient4632-92-3-0-8-1-9">
      <stop
         id="stop4634-68-8-0-2-9-4"
         style="stop-color:#fafafa;stop-opacity:1"
         offset="0" />
      <stop
         id="stop4636-8-21-7-1-4-8"
         style="stop-color:#e1e1e1;stop-opacity:1"
         offset="1" />
    </linearGradient>
    <radialGradient
       r="27.5"
       fy="4.3419166"
       fx="31.999998"
       cy="4.3419166"
       cx="31.999998"
       gradientTransform="matrix(1.8994991e-8,4.3639682,-4.363968,1.8994991e-8,-39.427011,-188.56514)"
       gradientUnits="userSpaceOnUse"
       id="radialGradient4397"
       xlink:href="#linearGradient4632-92-3-0-8-1-9" />
  </defs>
  <metadata
     id="metadata7362">
    <rdf:RDF>
      <cc:Work
         rdf:about="">
        <dc:format>image/svg+xml</dc:format>
        <dc:type
           rdf:resource="http://purl.org/dc/dcmitype/StillImage" />
        <dc:title />
      </cc:Work>
    </rdf:RDF>
  </metadata>
  <path
     style="color:#000000;fill:url(#radialGradient3015);fill-opacity:1;fill-rule:nonzero;stroke:none;stroke-width:0.99999994000000003;marker:none;visibility:visible;display:inline;overflow:visible;enable-background:accumulate"
     d="M 2.5 2 C 2.2143514 2 2 2.2143514 2 2.5 L 2 13.5 C 2 13.785649 2.2143514 14 2.5 14 L 13.5 14 C 13.785649 14 14 13.785649 14 13.5 L 14 2.5 C 14 2.2143514 13.785649 2 13.5 2 L 2.5 2 z "
     id="rect5505-21-2" />
  <rect
     style="opacity:0.5;fill:none;stroke:url(#linearGradient3007);stroke-width:1;stroke-linecap:round;stroke-linejoin:round;stroke-miterlimit:4;stroke-opacity:1;stroke-dasharray:none;stroke-dashoffset:0"
     id="rect6741-0-3"
     y="2.4999971"
     x="2.5"
     height="11"
     width="11" />
  <rect
     style="opacity:0.40000000000000002;color:#000000;fill:none;stroke:#000000;stroke-width:1;stroke-linecap:round;stroke-linejoin:round;stroke-miterlimit:4;stroke-opacity:1;stroke-dasharray:none;stroke-dashoffset:0;marker:none;visibility:visible;display:inline;overflow:visible;enable-background:accumulate"
     id="rect5505-21-2-8"
     y="1.4999971"
     x="1.5"
     ry="1"
     rx="1"
     height="13.000003"
     width="13.000003" />
  <path
     id="path8689"
     d="M 8,4.5 C 6.623507,4.5 5.5,5.628788 5.5,7 l 0,4 c 0,1.371212 1.123507,2.5 2.5,2.5 1.376493,0 2.5,-1.128788 2.5,-2.5 l 0,-4 C 10.5,5.628788 9.376493,4.5 8,4.5 z M 8,6 C 8.552,6 9,6.4 9,7 9,7.5 8.552,8 8,8 7.448,8 7,7.5 7,7 7,6.4 7.448,6 8,6 z m 0,3 c 0.552,0 1,0.4 1,1 l 0,1 C 9,11.5 8.552,12 8,12 7.448,12 7,11.5 7,11 L 7,10 C 7,9.4 7.448,9 8,9 z"
     style="opacity:0.2;fill:#000000;fill-opacity:1;stroke:#000000;stroke-opacity:1" />
  <path
     style="opacity:0.5;fill:#000000;fill-opacity:1"
     id="path14"
     d="m 6,2 0,7 c 0,1.1 0.895,2 2,2 1.105,0 2,-0.9 2,-2 l 0,-7 z" />
  <path
     style="fill:#999999"
     id="path16"
     d="M 8,2 7,2 7,3 8,3 z M 8,3 8,4 9,4 9,3 z M 8,4 7,4 7,5 8,5 z M 8,5 8,6 9,6 9,5 z M 8,6 7,6 7,7 8,7 z M 8,7 8,8 9,8 9,7 z M 8,8 7,8 7,9 8,9 z m 0,1 0,1 C 8.552,10 9,9.5 9,9 z" />
  <path
     style="fill:#ecf0f1"
     id="path18"
     d="M 7,3 7,4 8,4 8,3 z M 7,5 7,6 8,6 8,5 z M 7,7 7,8 8,8 8,7 z m 0,2 c 0,0.5 0.448,1 1,1 L 8,9 z" />
  <path
     style="fill:#ecf0f1;stroke:#000000;stroke-opacity:0.46296297"
     d="M 8,3.5 C 6.623507,3.5 5.5,4.628788 5.5,6 l 0,4 c 0,1.371212 1.123507,2.5 2.5,2.5 1.376493,0 2.5,-1.128788 2.5,-2.5 l 0,-4 C 10.5,4.628788 9.376493,3.5 8,3.5 z M 8,5 C 8.552,5 9,5.4 9,6 9,6.5 8.552,7 8,7 7.448,7 7,6.5 7,6 7,5.4 7.448,5 8,5 z m 0,3 c 0.552,0 1,0.4 1,1 l 0,1 C 9,10.5 8.552,11 8,11 7.448,11 7,10.5 7,10 L 7,9 C 7,8.4 7.448,8 8,8 z"
     id="path22" />
</svg>

<svg xmlns="http://www.w3.org/2000/svg" xmlns:xlink="http://www.w3.org/1999/xlink" viewBox="0 0 16 16"><defs><linearGradient id="a"><stop offset="0" stop-color="#fff"/><stop offset=".063" stop-color="#fff" stop-opacity=".235"/><stop offset=".951" stop-color="#fff" stop-opacity=".157"/><stop offset="1" stop-color="#fff" stop-opacity=".392"/></linearGradient><linearGradient xlink:href="#a" id="d" gradientUnits="userSpaceOnUse" gradientTransform="translate(.865 .865) scale(.2973)" x1="24" y1="5" x2="24" y2="43"/><radialGradient xlink:href="#b" id="c" gradientUnits="userSpaceOnUse" gradientTransform="matrix(0 3.16585 -3.88665 0 46.977 -26.72)" cx="6.73" cy="9.957" fx="6.2" fy="9.957" r="12.672"/><linearGradient id="b"><stop offset="0" stop-color="#fafafa"/><stop offset="1" stop-color="#e1e1e1"/></linearGradient></defs><path d="M2.5 2c-.286 0-.5.214-.5.5v11c0 .286.214.5.5.5h11c.286 0 .5-.214.5-.5v-11c0-.286-.214-.5-.5-.5h-11z" color="#000" fill="url(#c)" overflow="visible"/><path opacity=".5" fill="none" stroke="url(#d)" stroke-linecap="round" stroke-linejoin="round" d="M2.5 2.5h11v11h-11z"/><rect y="1.5" x="1.5" ry="1" rx="1" height="13" width="13" opacity=".4" color="#000" fill="none" stroke="#000" stroke-linecap="round" stroke-linejoin="round" overflow="visible"/><path d="M8 4.5A2.51 2.51 0 0 0 5.5 7v4A2.51 2.51 0 0 0 8 13.5a2.51 2.51 0 0 0 2.5-2.5V7A2.51 2.51 0 0 0 8 4.5zM8 6c.552 0 1 .4 1 1 0 .5-.448 1-1 1s-1-.5-1-1c0-.6.448-1 1-1zm0 3c.552 0 1 .4 1 1v1c0 .5-.448 1-1 1s-1-.5-1-1v-1c0-.6.448-1 1-1z" opacity=".2" stroke="#000"/><path d="M6 2v7c0 1.1.895 2 2 2s2-.9 2-2V2z" opacity=".5"/><path d="M8 2H7v1h1zm0 1v1h1V3zm0 1H7v1h1zm0 1v1h1V5zm0 1H7v1h1zm0 1v1h1V7zm0 1H7v1h1zm0 1v1c.552 0 1-.5 1-1z" fill="#999"/><path d="M7 3v1h1V3zm0 2v1h1V5zm0 2v1h1V7zm0 2c0 .5.448 1 1 1V9z" fill="#ecf0f1"/><path d="M8 3.5A2.51 2.51 0 0 0 5.5 6v4A2.51 2.51 0 0 0 8 12.5a2.51 2.51 0 0 0 2.5-2.5V6A2.51 2.51 0 0 0 8 3.5zM8 5c.552 0 1 .4 1 1 0 .5-.448 1-1 1s-1-.5-1-1c0-.6.448-1 1-1zm0 3c.552 0 1 .4 1 1v1c0 .5-.448 1-1 1s-1-.5-1-1V9c0-.6.448-1 1-1z" fill="#ecf0f1" stroke="#000" stroke-opacity=".463"/></svg>
